packages/icons/src/chaos-main.svg

<svg viewBox="0 0 32 32" fill="none" xmlns="http://www.w3.org/2000/svg">
<path fill-rule="evenodd" clip-rule="evenodd" d="M21.662 13.415C22.09 13.841 22.784 13.841 23.212 13.415C23.6401 12.989 23.6401 12.2983 23.212 11.8723L17.5653 6.25216L24.4024 2.32337C26.0013 1.40458 28 2.55307 28 4.39066L28 16.3974L19.7352 18.3653C19.1465 18.5055 18.7834 19.0941 18.9243 19.68C19.0651 20.266 19.6565 20.6273 20.2453 20.4872L28 18.6407V27.6093C28 29.4469 26.0013 30.5954 24.4024 29.6766L14.8901 24.2106L16.2212 14.6431C16.3042 14.0463 15.8854 13.4955 15.2858 13.4129C14.6862 13.3303 14.1328 13.7471 14.0498 14.3439L12.841 23.0331L4.1992 18.0673C2.60027 17.1485 2.60027 14.8515 4.1992 13.9327L15.5999 7.38152L21.662 13.415Z" fill="url(#paint0_linear_1522_106967)"/>
<defs>
<linearGradient id="paint0_linear_1522_106967" x1="12.7548" y1="6.36352" x2="27.8882" y2="29.9916" gradientUnits="userSpaceOnUse">
<stop stop-color="#FF61A2"/>
<stop offset="1" stop-color="#D8005A"/>
</linearGradient>
</defs>
</svg>

<svg viewBox="0 0 32 32" fill="none" xmlns="http://www.w3.org/2000/svg"><path fill-rule="evenodd" clip-rule="evenodd" d="M21.662 13.415a1.1 1.1 0 0 0 1.55 0 1.087 1.087 0 0 0 0-1.543l-5.647-5.62 6.837-3.929c1.6-.918 3.598.23 3.598 2.068v12.006l-8.265 1.968a1.09 1.09 0 1 0 .51 2.122L28 18.641v8.968c0 1.838-1.999 2.986-3.598 2.068L14.89 24.21l1.331-9.568a1.092 1.092 0 0 0-.935-1.23 1.095 1.095 0 0 0-1.236.93l-1.209 8.69-8.642-4.966c-1.599-.919-1.599-3.216 0-4.134l11.4-6.551 6.063 6.033Z" fill="url(#a)"/><defs><linearGradient id="a" x1="12.755" y1="6.364" x2="27.888" y2="29.992" gradientUnits="userSpaceOnUse"><stop stop-color="#FF61A2"/><stop offset="1" stop-color="#D8005A"/></linearGradient></defs></svg>
